X: 1
T: Camptown Jig ("Rein")
R: jig
Z: 1998 by John Chambers <jc@trillian.mit.edu>
M: 6/8
L: 1/8
K: G
d \
|| "G"d2d B2d | e2d B3 | "D7"BA2- A3 | BA2- A2d \
|  "G"d2d B2d | e2d B3 | "D7"A2c B2A | "G"G3- G2 ||
|: "G"G2G B2d | g3- "G7"g3 | "C"e2e g2e | "D7"d3- dBc \
|  "G"d2d B2d | e2d B3 | "D7"A2c B2A | "G"G3- G2 :|
